Easy-Camper/img/advantages/03.svg

<svg width="32" height="32" fill="none" xmlns="http://www.w3.org/2000/svg"><g clip-path="url(#clip0)" fill="#22262A"><path d="M2.883 32l8.507-8.507A12.928 12.928 0 0019.042 26c7.18 0 13-5.82 13-13s-5.82-13-13-13-13 5.82-13 13c0 2.843.923 5.465 2.471 7.604L0 29.117 2.883 32zm16.159-9.524a9.477 9.477 0 11.001-18.953 9.477 9.477 0 01-.001 18.953z"/><path d="M24.021 8h-10l-2 4 7 8 7-8-2-4z"/></g><defs><clipPath id="clip0"><path fill="#fff" d="M0 0h32v32H0z"/></clipPath></defs></svg>

<svg width="32" height="32" viewBox="0 0 32 32" fill="none" xmlns="http://www.w3.org/2000/svg">
<g clip-path="url(#clip0)">
<path d="M2.883 32L11.39 23.493C13.538 25.062 16.178 26 19.042 26C26.222 26 32.042 20.18 32.042 13C32.042 5.82 26.222 0 19.042 0C11.862 0 6.042 5.82 6.042 13C6.042 15.843 6.965 18.465 8.513 20.604L0 29.117L2.883 32ZM19.042 22.476C13.809 22.476 9.566 18.233 9.566 13C9.566 7.767 13.809 3.524 19.042 3.524C24.275 3.524 28.518 7.767 28.518 13C28.518 18.233 24.276 22.476 19.042 22.476Z" fill="#22262A"/>
<path d="M24.021 8H14.021L12.021 12L19.021 20L26.021 12L24.021 8Z" fill="#22262A"/>
</g>
<defs>
<clipPath id="clip0">
<rect width="32" height="32" fill="white"/>
</clipPath>
</defs>
</svg>
